carriers/evri.svg

<svg width="128" height="64" viewBox="0 0 128 64" fill="none" xmlns="http://www.w3.org/2000/svg">
<rect width="128" height="64" rx="6" fill="white"/>
<path fill-rule="evenodd" clip-rule="evenodd" d="M108.599 17.4565C110.597 17.4565 112.22 18.9966 112.22 20.993C112.22 23.0014 110.597 24.5294 108.599 24.5294C106.603 24.5294 104.979 22.9894 104.979 20.993C104.979 18.9846 106.603 17.4565 108.599 17.4565ZM38.6363 17.6487V25.2768H33.752V22.1847H22.0017V29.8221H32.6831V34.1539H22.0017V41.8647H33.7534V38.7726H38.6377V46.4114H14.0013V41.8647H16.7077V22.1847H14V17.6487H38.6363ZM55.8622 37.9426L63.7424 17.6487H66.7491L55.3217 46.5435H52.1696L40.6821 17.6487H48.0553L55.8622 37.9426ZM73.0053 31.4942V21.1611H88.3788C90.9517 21.1611 92.4197 21.5949 93.4179 22.509C94.308 23.327 94.8138 24.5054 94.8138 26.0815C94.8138 27.7056 94.3694 29.0414 93.4659 29.9916C92.5278 30.9778 91.1212 31.5062 88.4749 31.5062H73.0053V31.4942ZM101.707 46.4114L91.5416 34.6704C95.86 34.226 99.1322 31.0979 99.1322 26.0334C99.1322 23.4712 98.3622 21.5094 96.9063 20.1389C95.114 18.4441 92.5171 17.6487 88.3801 17.6487H68.8176V46.4114H73.0039V35.008H86.8735L96.5567 46.4114H101.707ZM111.751 42.5373C111.751 44.2214 112.449 44.9074 114 45.6894V46.41H103.511V45.6894C105.063 44.9194 105.761 44.2214 105.761 42.5373V31.5303C105.761 30.0396 105.497 29.2216 103.511 27.8977V27.1771H111.751V42.5373Z" fill="#007BC4"/>
</svg>

<svg xmlns="http://www.w3.org/2000/svg" width="128" height="64" fill="none"><rect width="128" height="64" fill="#fff" rx="6"/><path fill="#007BC4" fill-rule="evenodd" d="M108.599 17.456c1.998 0 3.621 1.54 3.621 3.537 0 2.008-1.623 3.536-3.621 3.536-1.996 0-3.62-1.54-3.62-3.536 0-2.008 1.624-3.537 3.62-3.537Zm-69.963.193v7.628h-4.884v-3.092h-11.75v7.637h10.681v4.332H22.002v7.71h11.751v-3.091h4.885v7.638H14v-4.546h2.707v-19.68H14v-4.536h24.636Zm17.226 20.294 7.88-20.294h3.007L55.322 46.544H52.17L40.682 17.649h7.373l7.807 20.294Zm17.143-6.449V21.161H88.38c2.573 0 4.04.434 5.039 1.348.89.818 1.396 1.996 1.396 3.572 0 1.625-.445 2.96-1.348 3.91-.938.987-2.345 1.515-4.991 1.515h-15.47v-.012Zm28.702 14.917-10.165-11.74c4.318-.445 7.59-3.573 7.59-8.638 0-2.562-.77-4.524-2.226-5.894-1.792-1.695-4.389-2.49-8.526-2.49H68.818V46.41h4.186V35.008h13.87l9.683 11.403h5.15Zm10.044-3.874c0 1.684.698 2.37 2.249 3.152v.721h-10.489v-.72c1.552-.77 2.25-1.469 2.25-3.153V31.53c0-1.49-.264-2.308-2.25-3.632v-.72h8.24v15.36Z" clip-rule="evenodd"/></svg>
